!!!COM: Palestrina, Giovanni Perluigi da
!!!OPR: Aeterna Christi munera
!!!OTL: Agnus II
**kern	**kern	**kern	**kern	**kern
*Ibass	*Itenor	*Itenor	*Icalto	*Icant
!Bassus	!Tenor 2	!Tenor 1	!Altus	!Cantus
*clefF4	*clefGv2	*clefGv2	*clefG2	*clefG2
*k[b-]	*k[b-]	*k[b-]	*k[b-]	*k[b-]
*F:ion	*F:ion	*F:ion	*F:ion	*F:ion
*M4/2	*M4/2	*M4/2	*M4/2	*M4/2
=1	=1	=1	=1	=1
2.F	0r	0r	1c	0r
4G	.	.	.	.
4A	.	.	1c	.
4B-	.	.	.	.
[2c	.	.	.	.
=2	=2	=2	=2	=2
2c]	0r	0r	1d	0r
2B-	.	.	.	.
2A	.	.	1e	.
2G	.	.	.	.
=3	=3	=3	=3	=3
2.A	0r	2.F	0c	0r
4G	.	4G	.	.
2F	.	4A	.	.
.	.	4B-	.	.
2A	.	[2c	.	.
=4	=4	=4	=4	=4
1G	0r	2c]	1d	0r
.	.	2B-	.	.
1C	.	2A	1e	.
.	.	2G	.	.
=5	=5	=5	=5	=5
2r	2.F	2.A	1.f	0r
2F	.	.	.	.
.	4G	4G	.	.
2D	4A	2F	.	.
.	4B-	.	.	.
2C	[2c	2G	2e	.
=6	=6	=6	=6	=6
2.D	2c]	1F	1d	1f
.	2B-	.	.	.
4E	.	.	.	.
1F	1A	2r	[1c	1f
.	.	[2f	.	.
=7	=7	=7	=7	=7
1C	1G	2f]	1c]	1g
.	.	2e	.	.
1r	1F	2d	1r	1a
.	.	2c	.	.
=8	=8	=8	=8	=8
0r	2.B-	2.d	0r	0f
.	4c	4c	.	.
.	4d	4B-	.	.
.	4e	4c	.	.
.	[2f	2d	.	.
=9	=9	=9	=9	=9
0r	2f]	1c	0r	1g
.	2e	.	.	.
.	2d	1F	.	1a
.	2c	.	.	.
=10	=10	=10	=10	=10
0r	2.d	0f	2.B-	1.b-
.	4c	.	4c	.
.	2B-	.	4d	.
.	.	.	4e	.
.	2F	.	[2f	2a
=11	=11	=11	=11	=11
1r	1c	2r	2f]	1g
.	.	2c	2e	.
2r	1r	2d	[1a	4f
.	.	.	.	4g
2F	.	[2f	.	4a
.	.	.	.	4b-
=12	=12	=12	=12	=12
2A	0r	2f]	2a]	2cc
2B-	.	1g	4g	4b-
.	.	.	4f	4a
1c	.	.	1e	2g
.	.	[2a	.	2cc
=13	=13	=13	=13	=13
1d	0r	2a]	1f	2a
.	.	2.f	.	2b-
2.A	.	.	2r	1cc
.	.	4e	.	.
.	.	2a	2c	.
4B-	.	.	.	.
=14	=14	=14	=14	=14
2c	0r	2g	2e	2cc
2d	.	1f	2f	2b
2.c	.	.	1g	1cc
.	.	2e	.	.
4B-	.	.	.	.
=15	=15	=15	=15	=15
4A	1F	2.f	1a	1cc
4G	.	.	.	.
2.F	.	.	.	.
.	.	8e	.	.
.	.	8d	.	.
.	2A	2c	1f	1r
4E	.	.	.	.
2D	2B-	[2B-	.	.
=16	=16	=16	=16	=16
1C	1c	2B-]	1e-	1r
.	.	2A	.	.
1BB-	[1d	1B-	2d	1f
.	.	.	2B-	.
=17	=17	=17	=17	=17
0r	1d]	2r	2.f	2a
.	.	2f	.	2b-
.	.	.	4g	.
.	1A	2e	2.a	1cc
.	.	2f	.	.
.	.	.	4g	.
=18	=18	=18	=18	=18
0r	2.B-	2d	2f	1dd
.	.	1f	2d	.
.	4c	.	.	.
.	1d	.	1f	2a
.	.	4e	.	2b-
.	.	4d	.	.
=19	=19	=19	=19	=19
2r	1c	2e	2g	1.cc
2F	.	2f	2a	.
2A	1r	2c	1f	.
2B-	.	[2f	.	4b-
.	.	.	.	4a
=20	=20	=20	=20	=20
1c	0r	2f]	1r	1g
.	.	2e	.	.
2d	.	1f	2r	[1f
2A	.	.	2c	.
=21	=21	=21	=21	=21
2B-	0r	2r	2d	0f]
1c	.	2F	2A	.
.	.	2A	2c	.
[2B-	.	2B-	2d	.
=22	=22	=22	=22	=22
2B-]	1F	1c	1f	0r
2A	.	.	.	.
2.B-	4B-	1d	2.f	.
.	4c	.	.	.
.	4d	.	.	.
8A	4e	.	4g	.
8G	.	.	.	.
=23	=23	=23	=23	=23
2F	2f	2A	2a	0r
2G	2d	2B-	1g	.
2E	2c	[1c	.	.
2F	2A	.	[2f	.
=24	=24	=24	=24	=24
1C	1G	0c]	2f]	1r
.	.	.	2e	.
1F	2r	.	2f	2r
.	[2A	.	[2c	[2f
=25	=25	=25	=25	=25
0r	2A]	0r	2c]	2f]
.	2B-	.	2d	2g
.	2c	.	2e	2a
.	2A	.	2c	2f
=26	=26	=26	=26	=26
0r	2B-	0r	2d	2.g
.	2c	.	2e	.
.	.	.	.	4a
.	2.d	.	2.f	2b-
.	.	.	.	2a
.	4c	.	4e	.
=27	=27	=27	=27	=27
0r	2.B-	2r	2.d	2g
.	.	1B-	.	2f
.	4A	.	4c	.
.	2G	.	4d	2b-
.	.	.	4e	.
.	2F	2c	[2f	[2a
=28	=28	=28	=28	=28
1r	1B-	1d	2f]	2a]
.	.	.	4e	2g
.	.	.	4d	.
2r	1A	2c	2e	1a
[2F	.	[2A	2c	.
=29	=29	=29	=29	=29
2F]	0r	2A]	2d	0r
2G	.	2B-	2.e	.
2A	.	2c	.	.
.	.	.	4c	.
2F	.	2A	2d	.
=30	=30	=30	=30	=30
2G	1r	2B-	2e	0r
2A	.	2c	2.f	.
2.B-	2r	2.d	.	.
.	.	.	4e	.
.	[2B-	.	2f	.
4A	.	4c	.	.
=31	=31	=31	=31	=31
2G	2B-]	4d	2g	0r
.	.	4e	.	.
4F	2c	2.f	2a	.
4E-	.	.	.	.
1D	2d	.	1f	.
.	.	4e-	.	.
.	2B-	2d	.	.
=32	=32	=32	=32	=32
2E-	2c	2c	0r	2r
2D	2d	1B-	.	2b-
1C	1e-	.	.	1cc
.	.	2A	.	.
=33	=33	=33	=33	=33
2BB-	1d	1B-	1r	2dd
1B-	.	.	.	2b-
.	1c	1F	[1f	1cc
2A	.	.	.	.
=34	=34	=34	=34	=34
1B-	4B-	0r	2f]	1dd
.	4c	.	.	.
.	4d	.	2g	.
.	4e	.	.	.
1F	4f	.	2a	[1cc
.	4c	.	.	.
.	[2f	.	2f	.
=35	=35	=35	=35	=35
1c	2f]	1r	1g	1cc]
.	2e	.	.	.
1F	2f	2r	1a	2r
.	[2c	[2A	.	[2f
=36	=36	=36	=36	=36
0r	2c]	2A]	0r	2f]
.	2d	2B-	.	2g
.	2e	2c	.	2a
.	2c	2A	.	2f
=37	=37	=37	=37	=37
0r	2d	2B-	0r	2g
.	2e	2c	.	2a
.	2.f	2.d	.	2.b-
.	4e	4c	.	4a
=38	=38	=38	=38	=38
2r	1.d	2.B-	0r	2g
1BB-	.	.	.	1f
.	.	4A	.	.
.	.	1G	.	.
2C	4c	.	.	2e
.	4B-	.	.	.
=39	=39	=39	=39	=39
2D	2A	2F	2r	1f
2BB-	1d	1F	1B-	.
2D	.	.	.	1r
2E-	[2c	2G	2c	.
=40	=40	=40	=40	=40
2F	2c]	2A	2d	0r
2D	1B-	2F	2B-	.
2E-	.	2G	1c	.
2F	2A	2A	.	.
=41	=41	=41	=41	=41
2BB-	2.f	1B-	2.d	2r
1BB-	.	.	.	1b-
.	4e	.	4e	.
.	2d	1F	[1f	.
2AA	2c	.	.	2cc
=42	=42	=42	=42	=42
2BB-	2.B-	[0F	0f]	2dd
2BB-	.	.	.	2dd
.	4c	.	.	.
1BB-	1d	.	.	1b-
=43	=43	=43	=43	=43
0F	0c	0F]	0f	0a
==	==	==	==	==
*-	*-	*-	*-	*-
!!!CDT: 1525/^1526/-1594/2/2
!!!OCY: Italia
!!!AGN: Mass (Paraphrase)
!!!AST: renaissance, vocal
!!!ASW: Hymn
!!!PWK: Masses, Book 5
!!!RNB: Cadence finals: C
!!!YOR: Le Opere Complete, v. 15, p. 1
!!!YOO: Rome, Italy: Fratelli Scalera
!!!END: 1992//
!!!EED: John Miller
!!!YEC: Copyright 2000, John Miller
!!!YEN: United States of America
!!!YEM: Rights to all derivative electronic formats reserved.
!!!YEM: Refer to licensing agreement for further details.
!!!YEM: This file must be accompanied by the licensing agreement.
!!!YEM: A copy of the licensing agreement may be found at http://www.music-cog.ohio-state.edu/HumdrumDatabases/Palestrina/license.txt
!!!EMD: converted to Humdrum by Bret Aarden
